X: 42165
T: Water's Edge, The
R: reel
M: 4/4
K: Dmajor
|:"D"D2 (3EFG A3B|"Am"=c2ed cAGE|"D"D2 (3EFG A3B|"A"c3e dcAG|
"D"A2"A"GE "D"(3FGA DA,|"D"D2 "Em"(3EFG "A"ABce|"D"d3f "A"ecAd|"A"cAGE "D"FAD2:|
|:"D"ABde f2(3efg|"D"abag "A"edce|"D"ABde f2 "Em"ed|"A"cAGE "D"FA"A"GE|
"D"ABde f2(3efg|"D"abaf "A"g2fg|"D"af "A"(3gfe "D"fdAF|"Em"(3GFE "A"AG "D"FDD2:|

